X: 1520
T: Turkies in the Straw
T: na ceirce-francai.g annsa tui.be.
R: reel
B: O'Neill's "Music of Ireland" #1520
O: McFadden
Z: transcribed by John B. Walsh, walsh@math.ubc.ca 8/23/96
Z: Compacted via repeats and multiple endings [JC]
M: C|
L: 1/8
K: G
(BA) | GE2F EDB,C | DEDB, DEGA |1 T(BA)Bc dBGA | BA2G Ac :|2 Bd2e dBGA | BGAF G2 |] GA | Bd2e dBGA |
| Bdde dcBA | Bdef gfed | BA ((3Bcd)e2ef || Tgfge dged | BdAG E2GA | BdAG EDB,D | EG2A G2 |]
